X:290
T: BESENBINDERS TOCHTER
N: E0884
O: Europa, Mitteleuropa, Deutschland
R: Hochzeits -, Ehestands - Lied, Scherz - Lied, Bettelhochzeit
M: 2/4
L: 1/8
K: F
 | c=BcA | F2F
A | G^FGE | C2z
A | c=BcA | F2F
A | G^FGE | F2z
C | CCCC | B2B
A | GGAB | c2f
A | c=BcA | FFF
A | GFGA | F2z
C | CCCC | B2B
A | GGAB | c2f
A | c=BcA | FFF
A | GFGA | F2z2

